X: 59
M: 4/4
L: 1/8
K: Bb
"a."dc |\
gecA FAcz/g/ | fdBF DFBd | eAgf eAgf | dBgf dfba |
gecA FAcz/g/ | fdBF DFBd | A2ag fedc | B2d2 [B2D2] |]
P: Var:
"a."Ac || "b."f=e |]


